BEGIN

BGCOL 0.11764 0.5647 1
CLS

SCALE 0.25

RESET
COL 1 0.69803 0.4
REPEAT 90
REPEAT 4
F 0.5
R 90
ENDREP
R 4
ENDREP

RESET
COL 1 0.69803 0.4
REPEAT 36
REPEAT 4
F 0.6
R 90
ENDREP
R 10
ENDREP

RESET
COL 1 0.27058 0.0
REPEAT 180
REPEAT 36
F 0.05
R 10
ENDREP
R 2
ENDREP
END